assets/icons/standard/call_coaching.svg

<?xml version="1.0"?><svg xmlns="http://www.w3.org/2000/svg" width="100" height="100" viewBox="0 0 100 100"><path fill="#fff" d="m41.8 20c2.9 0 5.3 2.6 4.9 5.5l-0.7 6.6c-0.3 2.2-2 4-4.2 4.4l-6 0.9c-0.8 0.1-1.4 0.8-1.4 1.6v21.9c0 0.8 0.6 1.5 1.4 1.7l6 0.9c2.3 0.3 4 2.2 4.2 4.4l0.8 6.6c0.4 2.9-1.9 5.6-4.9 5.4h-6.4c-1.4 0-2.8-0.5-3.7-1.6-7.2-7.9-10.8-18.4-10.8-28.4s3.7-20.5 10.7-28.3c0.9-1 2.3-1.6 3.7-1.6z m18.5 12.9c1.1 0 1.9 0.8 1.9 1.9v30.8c0 1.1-0.9 1.9-1.9 1.9-1 0-1.9-0.8-1.9-1.9v-30.8c0-1 0.8-1.9 1.9-1.9z m-8.5 7.3c1.1 0 1.9 0.8 1.9 1.9v16.2c0 1-0.9 1.9-1.9 1.9-1 0-1.9-0.8-1.9-1.9v-16.2c0-1 0.8-1.9 1.9-1.9z m17.2 0c1.1 0 1.9 0.8 1.9 1.9v15.7c0 1-0.9 1.8-1.9 1.8-1 0-1.9-0.8-1.9-1.9v-15.6c0-1 0.8-1.9 1.9-1.9z m8.9 5.6c1.1 0 1.9 0.8 1.9 1.9v3.6c0 1.1-0.8 1.9-1.9 1.9-1 0-1.9-0.8-1.9-1.9v-3.6c0-1 0.8-1.9 1.9-1.9z"></path></svg>

<svg xmlns="http://www.w3.org/2000/svg" width="100" height="100" viewBox="0 0 100 100">
  <path fill="#fff" d="M41.8,20 C44.7,20 47.1,22.6 46.7,25.5 L46.7,25.5 L46,32.1 C45.7,34.3 44,36.1 41.8,36.5 L41.8,36.5 L35.8,37.4 C35,37.5 34.4,38.2 34.4,39 L34.4,39 L34.4,60.9 C34.4,61.7 35,62.4 35.8,62.6 L35.8,62.6 L41.8,63.5 C44.1,63.8 45.8,65.7 46,67.9 L46,67.9 L46.8,74.5 C47.2,77.4 44.9,80.1 41.9,79.9 L41.9,79.9 L35.5,79.9 C34.1,79.9 32.7,79.4 31.8,78.3 C24.6,70.4 21,59.9 21,49.9 C21,39.9 24.7,29.4 31.7,21.6 C32.6,20.6 34,20 35.4,20 L35.4,20 Z M60.3,32.9 C61.4,32.9 62.2,33.7 62.2,34.8 L62.2,65.6 C62.2,66.7 61.3,67.5 60.3,67.5 C59.3,67.5 58.4,66.7 58.4,65.6 L58.4,34.8 C58.4,33.8 59.2,32.9 60.3,32.9 Z M51.8,40.2 C52.9,40.2 53.7,41 53.7,42.1 L53.7,58.3 C53.7,59.3 52.8,60.2 51.8,60.2 C50.8,60.2 49.9,59.4 49.9,58.3 L49.9,42.1 C49.9,41.1 50.7,40.2 51.8,40.2 Z M69,40.2 C70.1,40.2 70.9,41 70.9,42.1 L70.9,57.8 C70.9,58.8 70,59.6 69,59.6 C68,59.6 67.1,58.8 67.1,57.7 L67.1,42.1 C67.1,41.1 67.9,40.2 69,40.2 Z M77.9,45.8 C79,45.8 79.8,46.6 79.8,47.7 L79.8,51.3 C79.8,52.4 79,53.2 77.9,53.2 C76.9,53.2 76,52.4 76,51.3 L76,47.7 C76,46.7 76.8,45.8 77.9,45.8 Z" />
</svg>
